images/foundation.svg

<svg xmlns="http://www.w3.org/2000/svg" xmlns:xlink="http://www.w3.org/1999/xlink" version="1.1" x="0px" y="0px" viewBox="0 0 91 113.75" enable-background="new 0 0 91 91" xml:space="preserve"><g><path d="M9.176,26.34v2.51v61.654h26.43V28.85v-2.51V1.008H9.176V26.34z M33.094,42.979H21.137v32.007h11.957v13.008H11.686V28.85   h1.701h18.006h1.701V42.979z M33.094,45.488v26.988h-9.447V45.488H33.094z M18.76,9.92h7.258v8.457H18.76V9.92z M28.528,20.887   h0.355v5.453H15.897v-5.453h0.354H28.528z M11.686,3.518h21.408V26.34h-1.701v-7.963h-2.865V9.92h3.127v-2.51h-3.127H17.506H16.25   v10.967h-2.863v7.963h-1.701V3.518z"/><path d="M40.247,90.023H83.02v-6.885V66.527V50.561H40.247V90.023z M80.508,80.629H59.721V69.037h20.787V80.629z M80.508,53.07   v7.471h-5.301v2.51h5.301v3.477H57.211v16.611h23.297v4.375H42.756V63.051H71.73v-2.51H42.756V53.07H80.508z"/></g><text x="0" y="106" fill="#000000" font-size="5px" font-weight="bold" font-family="'Helvetica Neue', Helvetica, Arial-Unicode, Arial, Sans-serif">Created by Korawan.M</text><text x="0" y="111" fill="#000000" font-size="5px" font-weight="bold" font-family="'Helvetica Neue', Helvetica, Arial-Unicode, Arial, Sans-serif">from the Noun Project</text></svg>

<svg id="Layer_1" data-name="Layer 1" xmlns="http://www.w3.org/2000/svg" viewBox="0 0 73.84 89.5"><title>foundation</title><path d="M9.18,26.34V90.5H35.61V1H9.18V26.34ZM33.09,43h-12V75h12V88H11.69V28.85H33.09V43Zm0,2.51v27H23.65v-27h9.45ZM18.76,9.92H26v8.46H18.76V9.92Zm9.77,11h0.35v5.45h-13V20.89H28.53ZM11.69,3.52H33.09V26.34h-1.7v-8H28.53V9.92h3.13V7.41H16.25v11H13.39v8h-1.7V3.52Z" transform="translate(-9.18 -1.01)"/><path d="M40.25,90H83V50.56H40.25V90Zm40.26-9.39H59.72V69H80.51V80.63Zm0-27.56v7.47h-5.3v2.51h5.3v3.48H57.21V83.14h23.3v4.38H42.76V63.05h29V60.54h-29V53.07H80.51Z" transform="translate(-9.18 -1.01)"/></svg>
